icons/core/alarm-add.svg

<svg width="32" height="32" viewBox="0 0 32 32" fill="none" xmlns="http://www.w3.org/2000/svg">
<path fill-rule="evenodd" clip-rule="evenodd" d="M2.70693 9.20713L8.70699 3.20713L7.29279 1.79291L1.29272 7.79291L2.70693 9.20713ZM24.707 1.79291L30.707 7.79291L29.2928 9.20712L23.2928 3.20712L24.707 1.79291ZM15.9998 27C21.5227 27 25.9998 22.5229 25.9998 17C25.9998 11.4772 21.5227 7.00001 15.9998 7.00001C10.477 7.00001 5.99983 11.4772 5.99983 17C5.99983 22.5229 10.477 27 15.9998 27ZM15.9998 29C22.6272 29 27.9998 23.6274 27.9998 17C27.9998 10.3726 22.6272 5.00001 15.9998 5.00001C9.37241 5.00001 3.99983 10.3726 3.99983 17C3.99983 23.6274 9.37241 29 15.9998 29ZM15 16V11H17V16H22V18H17V23H15V18H10V16H15Z" fill="black"/>
</svg>

<svg width="32" height="32" viewBox="0 0 32 32" xmlns="http://www.w3.org/2000/svg">
    <path fill-rule="evenodd" d="M2.707 9.207l6-6-1.414-1.414-6 6 1.414 1.414zm22-7.414l6 6-1.414 1.414-6-6 1.414-1.414zM16 27c5.523 0 10-4.477 10-10S21.523 7 16 7 6 11.477 6 17s4.477 10 10 10zm0 2c6.627 0 12-5.373 12-12S22.627 5 16 5C9.372 5 4 10.373 4 17s5.372 12 12 12zm-1-13v-5h2v5h5v2h-5v5h-2v-5h-5v-2h5z"/>
</svg>
